X:1
T:Title
%%score { ( 1 3 ) | ( 2 4 ) }
L:1/8
Q:1/4=100
M:6/8
K:G
V:1 treble nm="Grand Piano"
V:3 treble 
V:2 bass 
V:4 bass 
V:1
 B>_B=B c2 B | E2 [DEB] [CEA]3 | [CDF]>[CEG][CFA] [A,CE]2 [A,CF] | [_B,^CE]3 [=B,D]3 | %4
w: Fred~B.~Holton * * * *||||
 [DB]>[^C_B][D=B] [Dd]2 [DG] | [DF]2 [CE] [Ec]3 | [DB]>[CDA][B,DG] [A,^CF]2 [G,CG] | [DB]3 [CA]3 | %8
w: ||||
 [B,D]>[B,E][B,F] [B,G]2 [B,A] | [CF]3 [Cd]3 | [CE]3 z3 | [DB]6 | [^DB]>[Dc][DB] [DF]G[B,FA] | %13
w: |||||
 [B,FA]2 [B,EG] .[B,EG]3 | [^CG]>[CF][CG] [CE]2 [CB] | A6 | [B,D]>[B,E][B,F] [B,G]2 [B,A] | %17
w: ||||
 [CF]3 [Cd]3 | [CE]3 z3 | [DB]6 | [=Fd]>[F^c][Fd] [FG]2 [Fd] | [Ec]>[EB][Ec] [DE]2 [DB] | %22
w: |||||
 [^CA]>[C^G][CA] [DB]2 [=CDA] | [B,DG]6 |] %24
w: ||
V:2
 [G,D]>[G,^C][G,D] [G,E]2 [G,D] | [C,G,C]2 C, C,3 | D,>D,D, D,2 D, | G,,3 G,,3 | %4
 G,>G,G, [B,,G,]2 [B,,G,] | [C,G,]2 [C,G,] [C,G,]3 | [G,,G,]>G,,G,, A,,2 A,, | [D,G,]3 [D,F,]3 | %8
 [G,,G,]>[G,,G,][G,,G,] [G,,D,]2 [G,,D,] | [A,,D,]3 [A,,F,]3 | .[D,A,]3 [D,F,]3 | G,2 G, .G,3 | %12
 z3 .[B,,B,]3 | E,2 E, z2 D | [A,,A,]>[A,,A,][A,,A,] [A,,G,]2 [A,,G,] | [D,F,C]2 [D,F,] .[D,F,]3 | %16
 [G,,G,]>[G,,G,][G,,G,] [G,,D,]2 [G,,D,] | [A,,D,]3 [A,,F,]3 | .[D,A,]3 [D,F,]3 | G,2 G, .G,3 | %20
 [B,,G,]>[B,,G,][B,,G,] [B,,G,]2 [B,,G,] | [C,G,]>[B,,G,][C,G,] [E,^G,]2 [E,G,] | %22
 [A,,A,]>[A,,A,][A,,G,] [D,F,]2 D, | G,,6 |] %24
V:3
 x6 | x6 | x6 | x6 | x6 | x6 | x6 | x6 | x6 | x6 | z2 [D,A,] [Ec]3 | x6 | x6 | x6 | x6 | z2 C .C3 | %16
 x6 | x6 | z2 [D,A,] [Ec]3 | x6 | x6 | x6 | x6 | x6 |] %24
V:4
 x6 | x6 | x6 | x6 | x6 | x6 | x6 | x6 | x6 | x6 | x6 | x6 | [B,,F,]>[B,,F,][B,,F,] z EA,, | %13
 z3 E,3 | x6 | x6 | x6 | x6 | x6 | x6 | x6 | x6 | x6 | x6 |] %24

